X: 23564
T: Light Within, The
R: jig
M: 6/8
K: Eminor
|:E2B BAG|FGA D2F|E2B BAB|GBG AFD|
E2B BAG|FGA D2F|GAB dBA|BEE E3:|
|:G2B BAB|BAB dBA|FGA DFA|B2A FED|
G2B BAB|BAB dBA|FGA DFA|BEE E3||

